X: 247
T: Capt.n Finch's fancy
%%VWML:Prestons1794-3056d-p105-0
F:http://www.vwml.org/record/Prestons1794/3056d/p105
Z: 2014 John Chambers <jc:trillian.mit.edu>
B: Preston "Twenty four Country Dances for the Year 1794" p.104 #1
F: http://www.vwml.org/browse/browse-collections-dance-tune-books/browse-prestons1794# 2014-8-10
M: 2/4
L: 1/16
K: G
|:\
GFGA G3A | BABc B3g |\
gfed e3c | BAGF G4 :|
|:\
d2dd e2ee | f2ff g4 |\
g2dB e3c | BAGF G4 :|
% - - - - - - - - - - - - - - - - - - - - - - - - -
%%begintext align
%% Turn your Part.r half round with the right
%% hand .| Turn back again with the left
%% hand :| Lead down the middle up again
%% & cast off :|:
%%endtext
% - - - - - - - - - - - - - - - - - - - - - - - - -
T: the Hop Ground
%R: jig
Z: 2014 John Chambers <jc:trillian.mit.edu>
B: Preston "Twenty four Country Dances for the Year 1794" p.104 #2
F: http://www.vwml.org/browse/browse-collections-dance-tune-books/browse-prestons1794# 2014-8-10
M: 6/8
L: 1/8
K: D
|:\
Add fed | gfe fed | Add fed | gee cdB |\
Add fed | gfe fed | fga gfe | fdd cdB :|
|:\
AFA Bcd | Add Bdd | AFA Bcd | efg fed |\
AFA Bcd | Add Bdd | fga gee | fdd cdB :|
% - - - - - - - - - - - - - - - - - - - - - - - - -
%%begintext align
%% The 1st Cu: set to the 2d Lady & turn .|
%%     Set to the 2d Gent.n and turn :|
%%       Cross over 1 Cu: & turn :|.
%%            Right & left :|:
%%endtext
% - - - - - - - - - - - - - - - - - - - - - - - - -
